src/assets/icons/tab-bar/contact-tracing-on.svg

<?xml version="1.0" encoding="UTF-8"?>
<svg width="32px" height="24px" viewBox="0 0 32 24" version="1.1" xmlns="http://www.w3.org/2000/svg" xmlns:xlink="http://www.w3.org/1999/xlink">
    <title>tab-contact-tracing-on</title>
    <g id="tab-contact-tracing-on" stroke="none" stroke-width="1" fill="none" fill-rule="evenodd">
        <path d="M13.6315789,19.3392461 C14.3582694,19.3392461 14.9473684,19.9348762 14.9473684,20.6696231 C14.9473684,21.40437 14.3582694,22 13.6315789,22 C12.9048885,22 12.3157895,21.40437 12.3157895,20.6696231 C12.3157895,19.9348762 12.9048885,19.3392461 13.6315789,19.3392461 Z M18.3684211,19.3392461 C19.0951115,19.3392461 19.6842105,19.9348762 19.6842105,20.6696231 C19.6842105,21.40437 19.0951115,22 18.3684211,22 C17.6417306,22 17.0526316,21.40437 17.0526316,20.6696231 C17.0526316,19.9348762 17.6417306,19.3392461 18.3684211,19.3392461 Z M9.94736842,17.210643 C10.6740589,17.210643 11.2631579,17.8062731 11.2631579,18.54102 C11.2631579,19.2757669 10.6740589,19.8713969 9.94736842,19.8713969 C9.22067796,19.8713969 8.63157895,19.2757669 8.63157895,18.54102 C8.63157895,17.8062731 9.22067796,17.210643 9.94736842,17.210643 Z M22.0526316,17.210643 C22.779322,17.210643 23.3684211,17.8062731 23.3684211,18.54102 C23.3684211,19.2757669 22.779322,19.8713969 22.0526316,19.8713969 C21.3259411,19.8713969 20.7368421,19.2757669 20.7368421,18.54102 C20.7368421,17.8062731 21.3259411,17.210643 22.0526316,17.210643 Z M16,6.21286031 C19.197438,6.21286031 21.7894737,8.83363251 21.7894737,12.0665188 C21.7894737,15.2994052 19.197438,17.9201774 16,17.9201774 C12.802562,17.9201774 10.2105263,15.2994052 10.2105263,12.0665188 C10.2105263,8.83363251 12.802562,6.21286031 16,6.21286031 Z M7.31578947,12.9534368 C8.04247993,12.9534368 8.63157895,13.5490669 8.63157895,14.2838137 C8.63157895,15.0185606 8.04247993,15.6141907 7.31578947,15.6141907 C6.58909901,15.6141907 6,15.0185606 6,14.2838137 C6,13.5490669 6.58909901,12.9534368 7.31578947,12.9534368 Z M24.6842105,12.9534368 C25.410901,12.9534368 26,13.5490669 26,14.2838137 C26,15.0185606 25.410901,15.6141907 24.6842105,15.6141907 C23.9575201,15.6141907 23.3684211,15.0185606 23.3684211,14.2838137 C23.3684211,13.5490669 23.9575201,12.9534368 24.6842105,12.9534368 Z M7.31578947,8.38580931 C8.04247993,8.38580931 8.63157895,8.98143936 8.63157895,9.71618625 C8.63157895,10.4509331 8.04247993,11.0465632 7.31578947,11.0465632 C6.58909901,11.0465632 6,10.4509331 6,9.71618625 C6,8.98143936 6.58909901,8.38580931 7.31578947,8.38580931 Z M24.6842105,8.38580931 C25.410901,8.38580931 26,8.98143936 26,9.71618625 C26,10.4509331 25.410901,11.0465632 24.6842105,11.0465632 C23.9575201,11.0465632 23.3684211,10.4509331 23.3684211,9.71618625 C23.3684211,8.98143936 23.9575201,8.38580931 24.6842105,8.38580931 Z M9.42105263,4.1286031 C10.1477431,4.1286031 10.7368421,4.72423315 10.7368421,5.45898004 C10.7368421,6.19372694 10.1477431,6.78935698 9.42105263,6.78935698 C8.69436217,6.78935698 8.10526316,6.19372694 8.10526316,5.45898004 C8.10526316,4.72423315 8.69436217,4.1286031 9.42105263,4.1286031 Z M22.0526316,4.1286031 C22.779322,4.1286031 23.3684211,4.72423315 23.3684211,5.45898004 C23.3684211,6.19372694 22.779322,6.78935698 22.0526316,6.78935698 C21.3259411,6.78935698 20.7368421,6.19372694 20.7368421,5.45898004 C20.7368421,4.72423315 21.3259411,4.1286031 22.0526316,4.1286031 Z M13.6315789,2 C14.3582694,2 14.9473684,2.59563004 14.9473684,3.33037694 C14.9473684,4.06512384 14.3582694,4.66075388 13.6315789,4.66075388 C12.9048885,4.66075388 12.3157895,4.06512384 12.3157895,3.33037694 C12.3157895,2.59563004 12.9048885,2 13.6315789,2 Z M18.3684211,2 C19.0951115,2 19.6842105,2.59563004 19.6842105,3.33037694 C19.6842105,4.06512384 19.0951115,4.66075388 18.3684211,4.66075388 C17.6417306,4.66075388 17.0526316,4.06512384 17.0526316,3.33037694 C17.0526316,2.59563004 17.6417306,2 18.3684211,2 Z" id="Combined-Shape" fill="#B2B2B2"></path>
    </g>
</svg>

<svg xmlns="http://www.w3.org/2000/svg" viewBox="0 0 32 24"><defs/><path fill="currentColor" fill-rule="evenodd" d="M13.63 19.34c.73 0 1.32.6 1.32 1.33 0 .73-.6 1.33-1.32 1.33-.73 0-1.31-.6-1.31-1.33 0-.74.58-1.33 1.31-1.33zm4.74 0c.73 0 1.31.6 1.31 1.33 0 .73-.58 1.33-1.31 1.33-.73 0-1.32-.6-1.32-1.33 0-.74.6-1.33 1.32-1.33zM9.95 17.2c.72 0 1.31.6 1.31 1.33 0 .74-.59 1.33-1.31 1.33-.73 0-1.32-.6-1.32-1.33 0-.73.6-1.33 1.32-1.33zm12.1 0c.73 0 1.32.6 1.32 1.33 0 .74-.6 1.33-1.32 1.33-.72 0-1.31-.6-1.31-1.33 0-.73.59-1.33 1.31-1.33zM16 6.21c3.2 0 5.79 2.62 5.79 5.86 0 3.23-2.6 5.85-5.79 5.85a5.82 5.82 0 01-5.79-5.85c0-3.24 2.6-5.86 5.79-5.86zm-8.68 6.74c.72 0 1.31.6 1.31 1.33 0 .74-.59 1.33-1.31 1.33-.73 0-1.32-.6-1.32-1.33 0-.73.59-1.33 1.32-1.33zm17.36 0c.73 0 1.32.6 1.32 1.33 0 .74-.59 1.33-1.32 1.33-.72 0-1.31-.6-1.31-1.33 0-.73.59-1.33 1.31-1.33zM7.32 8.4c.72 0 1.31.6 1.31 1.33 0 .73-.59 1.33-1.31 1.33-.73 0-1.32-.6-1.32-1.33 0-.74.59-1.33 1.32-1.33zm17.36 0c.73 0 1.32.6 1.32 1.33 0 .73-.59 1.33-1.32 1.33-.72 0-1.31-.6-1.31-1.33 0-.74.59-1.33 1.31-1.33zM9.42 4.13c.73 0 1.32.6 1.32 1.33 0 .73-.6 1.33-1.32 1.33-.73 0-1.31-.6-1.31-1.33 0-.74.58-1.33 1.31-1.33zm12.63 0c.73 0 1.32.6 1.32 1.33 0 .73-.6 1.33-1.32 1.33-.72 0-1.31-.6-1.31-1.33 0-.74.59-1.33 1.31-1.33zM13.63 2c.73 0 1.32.6 1.32 1.33 0 .74-.6 1.33-1.32 1.33-.73 0-1.31-.6-1.31-1.33 0-.73.58-1.33 1.31-1.33zm4.74 0c.73 0 1.31.6 1.31 1.33 0 .74-.58 1.33-1.31 1.33-.73 0-1.32-.6-1.32-1.33 0-.73.6-1.33 1.32-1.33z"/></svg>
